symbols/web/nature_people/materialsymbolssharp/nature_people_wght100grad200_20px.svg

<svg xmlns="http://www.w3.org/2000/svg" height="20" width="20"><path d="M3.417 10.229q-.417 0-.761-.344-.344-.343-.344-.76t.344-.76q.344-.344.761-.344.416 0 .76.344.344.343.344.76t-.344.76q-.344.344-.76.344Zm-.855 8.146v-3.646h-.729V11h3.146v3.729h-.708v2.438h8.021v-4.938h-1.667q-1.271 0-2.156-.854-.886-.854-.886-2.021 0-.896.511-1.76.51-.865 1.531-1.302.125-1.438 1.156-2.219 1.031-.781 2.115-.781 1.062 0 2.083.781 1.021.781 1.146 2.219 1 .437 1.521 1.302.521.864.521 1.76 0 1.167-.886 2.021-.885.854-2.156.854H13.5v4.938h4.083v1.208Zm8.063-7.354h4.5q.729 0 1.281-.479.552-.48.552-1.188 0-.729-.479-1.271-.479-.541-1.167-.791l-.333-.104-.021-.313q-.02-1.042-.593-1.708-.573-.667-1.49-.667t-1.51.667q-.594.666-.615 1.708l-.021.313-.291.104q-.688.27-1.167.802-.479.531-.479 1.26 0 .708.552 1.188.552.479 1.281.479Zm2.25-3.271Z"/></svg>

<svg xmlns="http://www.w3.org/2000/svg" height="20" width="20"><path d="M3.417 10.229Q3 10.229 2.656 9.885Q2.312 9.542 2.312 9.125Q2.312 8.708 2.656 8.365Q3 8.021 3.417 8.021Q3.833 8.021 4.177 8.365Q4.521 8.708 4.521 9.125Q4.521 9.542 4.177 9.885Q3.833 10.229 3.417 10.229ZM2.562 18.375V14.729H1.833V11H4.979V14.729H4.271V17.167H12.292V12.229H10.625Q9.354 12.229 8.469 11.375Q7.583 10.521 7.583 9.354Q7.583 8.458 8.094 7.594Q8.604 6.729 9.625 6.292Q9.75 4.854 10.781 4.073Q11.812 3.292 12.896 3.292Q13.958 3.292 14.979 4.073Q16 4.854 16.125 6.292Q17.125 6.729 17.646 7.594Q18.167 8.458 18.167 9.354Q18.167 10.521 17.281 11.375Q16.396 12.229 15.125 12.229H13.5V17.167H17.583V18.375ZM10.625 11.021H15.125Q15.854 11.021 16.406 10.542Q16.958 10.062 16.958 9.354Q16.958 8.625 16.479 8.083Q16 7.542 15.312 7.292L14.979 7.188L14.958 6.875Q14.938 5.833 14.365 5.167Q13.792 4.5 12.875 4.5Q11.958 4.5 11.365 5.167Q10.771 5.833 10.75 6.875L10.729 7.188L10.438 7.292Q9.75 7.562 9.271 8.094Q8.792 8.625 8.792 9.354Q8.792 10.062 9.344 10.542Q9.896 11.021 10.625 11.021ZM12.875 7.75Q12.875 7.75 12.875 7.75Q12.875 7.75 12.875 7.75Q12.875 7.75 12.875 7.75Q12.875 7.75 12.875 7.75Q12.875 7.75 12.875 7.75Q12.875 7.75 12.875 7.75Q12.875 7.75 12.875 7.75Q12.875 7.75 12.875 7.75Q12.875 7.75 12.875 7.75Q12.875 7.75 12.875 7.75Q12.875 7.75 12.875 7.75Q12.875 7.75 12.875 7.75Z"/></svg>
